X:1
T:Title
%%score ( 1 2 ) { 3 | 4 }
L:1/8
Q:1/4=115
M:3/4
K:F
V:1 treble nm="Grand Piano, Soprano"
V:2 treble 
V:3 bass nm="Choir Pad, Vanderbilt, Zimri Parvin 1875"
V:4 bass 
V:1
 cB [FA]2 [CG]2 | z2 G2 z2 | [EB]2 [FA]4 | .A2 z2 z2 | z2 A2 z2 | [CE]2 [CF]4 | .c2 z2 z2 | %7
w: By~Zimri~Mullen~Parvin,~1875 * * *|||||||
 z2 G2 z2 | [EB]2 [FA]2 [DF]2 | [FA]2 [FB]4 | z2 F2 z2 | [CF]2 [CG]4 | [CE]2 [CF]4- | [CF]4 z2 |] %14
w: |||||||
V:2
 F2 z2 z2 | [CF]2 E2- [Ec]2 | x6 | E-[EG] F2 [_EA]2 | [DB]2 C2- [CF]2 | x6 | F-[FB] [FA]2 [CG]2 | %7
 [CF]2 E2- [Ec]2 | x6 | x6 | [DG]2 C2- [CE]2 | x6 | x6 | x6 |] %14
V:3
 A,G, F,2 B,2 | A,2[K:treble] C2 G,2 | C2 C4 | C[K:bass]B, A,2 F,2 | F,2 F,2 A,2 | B,2 A,4 | %6
 A,G, F,2 B,2 | A,2[K:treble] C2 G,2 | C2 C2 A,2 | C2[K:bass] B,4 | B,2 A,2 G,2 | A,2 B,4 | %12
 G,B, A,4- | A,4 z2 |] %14
V:4
 F,2 z2 z2 | F,2 C,4 | C,2 F,4 | C,2 D,2 C,2 | B,,2 C,4 | C,2 F,4 | F,2 z2 z2 | F,2 C,4 | C,2 F,4 | %9
 _E,2 D,4 | B,,2 C,4 | C,2 C,4 | C,2 [F,,F,]4- | [F,,F,]4 z2 |] %14

